!!!OTL: Die Todesbraut Dai Bochtel shluget in insher Valde.
!!!ARE: Europa, Suedosteuropa, Jugoslavija, Gottschee
!!!YOR: 2, S. 238
!!    ????
!!!SCT: Q1049G
!!!YEM: Copyright 1995, estate of Helmut Schaffrath.
**kern
*ICvox
*Ivox
*M3/4
*k[f#c#g#]
*A:
{4a
=1
4b
4a
4g#
=2
4a
4a
4b
=3
4b
4a
4b
=4
2a}
{4b
=5
4ccn
4b
4a
=6
4g#
4a
4b
=7
2a
4g#
=8
2a}
{4a
=9
4b
4a
4g#
=10
4a
4a
4b
=11
4b
4a
4b
=12
2a}
{4b
=13
4ccn
4b
4a
=14
4g#
4a
4b
=15
2a
4g#
=16
2a}
==
!!!AGN: Brauchtums - Lied, religioes
!! Melodievergleich zu Q0049B, anderes Lied.
!!!ONB: ESAC (Essen Associative Code) Database: BALLADE
!!!AMT: simple triple
!!!AIN: vox
!!!EED: Helmut Schaffrath
!!!EEV: 1.0
*-
